assets/img/InstagramIconGray.svg

<svg version="1.1" id="Capa_2" xmlns="http://www.w3.org/2000/svg" x="0" y="0" viewBox="0 0 14.45 14.45" style="enable-background:new 0 0 14.45 14.45" xml:space="preserve"><style>.st1{fill:#fff}.st2{fill:none;stroke:#fff;stroke-width:.75;stroke-miterlimit:10}.st3{stroke-width:2.001}.st3,.st4{fill:none;stroke:#000;stroke-miterlimit:10}</style><path d="M4.82 7.22c0-1.33 1.08-2.41 2.41-2.41s2.41 1.08 2.41 2.41-1.09 2.41-2.42 2.41-2.4-1.08-2.4-2.41m-1.31 0c0 2.05 1.66 3.71 3.71 3.71s3.71-1.66 3.71-3.71-1.66-3.71-3.71-3.71-3.71 1.67-3.71 3.71m6.7-3.85a.87.87 0 1 0 .87-.87.87.87 0 0 0-.87.87m-5.9 9.73c-.7-.03-1.09-.15-1.34-.25-.34-.13-.58-.29-.83-.54s-.41-.49-.54-.83c-.1-.25-.22-.64-.25-1.34-.04-.76-.05-.99-.05-2.92s.01-2.15.04-2.92c.03-.7.15-1.09.25-1.34.13-.34.29-.58.54-.83s.49-.41.83-.54c.25-.1.64-.22 1.34-.25.77-.03 1-.04 2.92-.04s2.16.01 2.92.04c.7.03 1.09.15 1.34.25.34.13.58.29.83.54s.41.49.54.83c.1.25.22.64.25 1.34.04.76.04.99.04 2.92s-.01 2.16-.04 2.92c-.03.7-.15 1.09-.25 1.34-.13.34-.29.58-.54.83-.25.25-.49.41-.83.54-.25.1-.64.22-1.34.25-.76.04-.99.04-2.92.04s-2.15 0-2.91-.04M4.25.04c-.77.04-1.3.16-1.76.34-.47.18-.88.43-1.28.83s-.65.8-.83 1.28c-.18.46-.3.99-.34 1.76C.01 5.02 0 5.26 0 7.22s.01 2.21.04 2.98c.04.77.16 1.29.34 1.75.18.47.43.88.83 1.28.4.4.8.65 1.28.83.46.18.98.3 1.75.34.77.04 1.02.04 2.98.04s2.21-.01 2.98-.04c.77-.04 1.29-.16 1.75-.34.47-.18.88-.43 1.28-.83.4-.4.65-.8.83-1.28.18-.46.3-.98.34-1.75.04-.77.04-1.02.04-2.98s-.01-2.21-.04-2.98c-.04-.77-.16-1.29-.34-1.75-.18-.47-.43-.88-.83-1.28-.4-.4-.8-.65-1.28-.83-.46-.18-.98-.3-1.75-.34C9.43.01 9.19 0 7.22 0s-2.2.01-2.97.04" style="fill:#545454"/></svg>

<?xml version="1.0" encoding="utf-8"?>
<!-- Generator: Adobe Illustrator 24.1.0, SVG Export Plug-In . SVG Version: 6.00 Build 0)  -->
<svg version="1.1" id="Capa_2" xmlns="http://www.w3.org/2000/svg" xmlns:xlink="http://www.w3.org/1999/xlink" x="0px" y="0px"
	 viewBox="0 0 14.45 14.45" style="enable-background:new 0 0 14.45 14.45;" xml:space="preserve">
<style type="text/css">
	.st0{fill:#545454;}
	.st1{fill:#FFFFFF;}
	.st2{fill:none;stroke:#FFFFFF;stroke-width:0.75;stroke-miterlimit:10;}
	.st3{fill:none;stroke:#000000;stroke-width:2.001;stroke-miterlimit:10;}
	.st4{fill:none;stroke:#000000;stroke-miterlimit:10;}
</style>
<path class="st0" d="M4.82,7.22c0-1.33,1.08-2.41,2.41-2.41s2.41,1.08,2.41,2.41S8.55,9.63,7.22,9.63S4.82,8.55,4.82,7.22
	 M3.51,7.22c0,2.05,1.66,3.71,3.71,3.71s3.71-1.66,3.71-3.71S9.27,3.51,7.22,3.51S3.51,5.18,3.51,7.22 M10.21,3.37
	c0,0.48,0.39,0.87,0.87,0.87c0.48,0,0.87-0.39,0.87-0.87c0-0.48-0.39-0.87-0.87-0.87h0C10.6,2.5,10.21,2.89,10.21,3.37 M4.31,13.1
	c-0.7-0.03-1.09-0.15-1.34-0.25c-0.34-0.13-0.58-0.29-0.83-0.54s-0.41-0.49-0.54-0.83c-0.1-0.25-0.22-0.64-0.25-1.34
	C1.31,9.38,1.3,9.15,1.3,7.22S1.31,5.07,1.34,4.3c0.03-0.7,0.15-1.09,0.25-1.34c0.13-0.34,0.29-0.58,0.54-0.83s0.49-0.41,0.83-0.54
	c0.25-0.1,0.64-0.22,1.34-0.25C5.07,1.31,5.3,1.3,7.22,1.3s2.16,0.01,2.92,0.04c0.7,0.03,1.09,0.15,1.34,0.25
	c0.34,0.13,0.58,0.29,0.83,0.54s0.41,0.49,0.54,0.83c0.1,0.25,0.22,0.64,0.25,1.34c0.04,0.76,0.04,0.99,0.04,2.92
	s-0.01,2.16-0.04,2.92c-0.03,0.7-0.15,1.09-0.25,1.34c-0.13,0.34-0.29,0.58-0.54,0.83c-0.25,0.25-0.49,0.41-0.83,0.54
	c-0.25,0.1-0.64,0.22-1.34,0.25c-0.76,0.04-0.99,0.04-2.92,0.04S5.07,13.14,4.31,13.1 M4.25,0.04C3.48,0.08,2.95,0.2,2.49,0.38
	C2.02,0.56,1.61,0.81,1.21,1.21s-0.65,0.8-0.83,1.28C0.2,2.95,0.08,3.48,0.04,4.25C0.01,5.02,0,5.26,0,7.22s0.01,2.21,0.04,2.98
	c0.04,0.77,0.16,1.29,0.34,1.75c0.18,0.47,0.43,0.88,0.83,1.28c0.4,0.4,0.8,0.65,1.28,0.83c0.46,0.18,0.98,0.3,1.75,0.34
	c0.77,0.04,1.02,0.04,2.98,0.04s2.21-0.01,2.98-0.04c0.77-0.04,1.29-0.16,1.75-0.34c0.47-0.18,0.88-0.43,1.28-0.83
	c0.4-0.4,0.65-0.8,0.83-1.28c0.18-0.46,0.3-0.98,0.34-1.75c0.04-0.77,0.04-1.02,0.04-2.98s-0.01-2.21-0.04-2.98
	c-0.04-0.77-0.16-1.29-0.34-1.75c-0.18-0.47-0.43-0.88-0.83-1.28c-0.4-0.4-0.8-0.65-1.28-0.83c-0.46-0.18-0.98-0.3-1.75-0.34
	C9.43,0.01,9.19,0,7.22,0S5.02,0.01,4.25,0.04"/>
</svg>
